**harmony	**harte	**kern	**silbe	**rhyme	**timestamp	**phrase
*M4/4	*M4/4	*ICvox	*	*	*	*
*	*	*VRlead	*	*	*	*
*	*	*Hstimme	*	*	*	*
*G:	*G:	*G:	*	*	*	*
*	*	*M4/4	*	*	*	*
*	*	*clefF4	*	*	*	*
1r;	1r	r;	.	.	0	.
=1	=1	=1	=1	=1	=1	=1
*>Letter>A	*>Letter>A	*>Letter>A	*>Letter>A	*>Letter>A	*>Letter>A	*>Letter>A
*>Label>Intro	*>Label>Intro	*>Label>Intro	*>Label>Intro	*>Label>Intro	*>Label>Intro	*>Label>Intro
1N	N	1r	.	.	0.488	newline
=2	=2	=2	=2	=2	=2	=2
1N	N	1r	.	.	3.411	.
=3	=3	=3	=3	=3	=3	=3
*>Letter>B2	*>Letter>B2	*>Letter>B2	*>Letter>B2	*>Letter>B2	*>Letter>B2	*>Letter>B2
*>Label>Solo	*>Label>Solo	*>Label>Solo	*>Label>Solo	*>Label>Solo	*>Label>Solo	*>Label>Solo
1GM	G:maj	1r	.	.	6.335	newline
=4	=4	=4	=4	=4	=4	=4
1DM	D:maj	1r	.	.	8.26	.
=5	=5	=5	=5	=5	=5	=5
2Em	E:min	1r	.	.	10.185	.
2DM	D:maj6	.	.	.	11.148	.
=6	=6	=6	=6	=6	=6	=6
2.CM	C:maj	1r	.	.	12.111	.
4DM	D:maj	.	.	.	13.555	.
=7	=7	=7	=7	=7	=7	=7
1GM	G:maj	1r	.	.	14.036	newline
=8	=8	=8	=8	=8	=8	=8
1DM	D:maj	1r	.	.	15.957	.
=9	=9	=9	=9	=9	=9	=9
2Em	E:min	1r	.	.	17.878	.
2DM	D:maj6	.	.	.	18.838	.
=10	=10	=10	=10	=10	=10	=10
2.CM	C:maj	1r	.	.	19.799	.
4DM	D:maj	.	.	.	21.239	.
=11	=11	=11	=11	=11	=11	=11
1GM	G:maj	1r	.	.	21.719	newline
=12	=12	=12	=12	=12	=12	=12
1DM	D:maj	1r	.	.	23.647	.
=13	=13	=13	=13	=13	=13	=13
2Em	E:min	1r	.	.	25.575	.
2DM	D:maj6	.	.	.	26.539	.
=14	=14	=14	=14	=14	=14	=14
2.CM	C:maj	1r	.	.	27.503	.
4DM	D:maj	.	.	.	28.949	.
=15	=15	=15	=15	=15	=15	=15
2.CM	C:maj	1r	.	.	29.431	newline
4DM	D:maj	.	.	.	30.864	.
=16	=16	=16	=16	=16	=16	=16
2.CM	C:maj	1r	.	.	31.341	.
4DM	D:maj	.	.	.	32.774	.
=17	=17	=17	=17	=17	=17	=17
*>Letter>B	*>Letter>B	*>Letter>B	*>Letter>B	*>Letter>B	*>Letter>B	*>Letter>B
*>Label>Verse	*>Label>Verse	*>Label>Verse	*>Label>Verse	*>Label>Verse	*>Label>Verse	*>Label>Verse
1GM	G:maj	4r	.	.	33.251	newline
.	.	16r	.	.	.	.
.	.	8B	May-	.	.	.
.	.	16c	-be	.	.	.
.	.	[4d	I	.	.	.
.	.	8d]	_	.	.	.
.	.	16c	did-	.	.	.
.	.	16B	-n't	.	.	.
=18	=18	=18	=18	=18	=18	=18
1DM	D:maj	8.B	treat	.	35.179	.
.	.	[16A	you	.	.	.
.	.	4A]	.	.	.	.
.	.	2r	.	.	.	.
=19	=19	=19	=19	=19	=19	=19
2Em	E:min	4r	.	.	37.106	.
.	.	12r	.	.	.	.
.	.	12G	quite	.	.	.
.	.	12A	as	.	.	.
2DM	D:maj6	[4B	good	A	38.07	.
.	.	12B]	_	.	.	.
.	.	12A	as	.	.	.
.	.	12G	I	.	.	.
=20	=20	=20	=20	=20	=20	=20
2.CM	C:maj	8F#	should	A	39.034	.
.	.	[8E	_	.	.	.
.	.	4E_	_	.	.	.
.	.	8E]	_	.	.	.
.	.	8r	.	.	.	.
4DM	D:maj	4r	.	.	40.479	.
=21	=21	=21	=21	=21	=21	=21
1GM	G:maj	4r	.	.	40.961	newline
.	.	12r	.	.	.	.
.	.	12B	May-	.	.	.
.	.	12c	-be	.	.	.
.	.	[4d	I	.	.	.
.	.	12d]	_	.	.	.
.	.	12c	did-	.	.	.
.	.	12B	-n't	.	.	.
=22	=22	=22	=22	=22	=22	=22
1DM	D:maj	8.B	love	.	42.876	.
.	.	[16A	you	.	.	.
.	.	4A_	_	.	.	.
.	.	4A]	.	.	.	.
.	.	4r	.	.	.	.
=23	=23	=23	=23	=23	=23	=23
2Em	E:min	4r	.	.	44.791	.
.	.	12r	.	.	.	.
.	.	12G	quite	.	.	.
.	.	12A	as	.	.	.
2DM	D:maj6	6B	of-	.	45.748	.
.	.	6A	-ten	.	.	.
.	.	8G	as	.	.	.
.	.	[24F#	I	.	.	.
=24	=24	=24	=24	=24	=24	=24
1AM	A:maj	8F#]	_	.	46.706	.
.	.	16G	could	A	.	.
.	.	16F#	_	.	.	.
.	.	[4E	_	.	.	.
.	.	4E]	_	.	.	.
.	.	4r	.	.	.	.
=25	=25	=25	=25	=25	=25	=25
*>Letter>C	*>Letter>C	*>Letter>C	*>Letter>C	*>Letter>C	*>Letter>C	*>Letter>C
*>Label>Chorus	*>Label>Chorus	*>Label>Chorus	*>Label>Chorus	*>Label>Chorus	*>Label>Chorus	*>Label>Chorus
1CM	C:maj	4r	.	.	48.62	newline
.	.	12r	.	.	.	.
.	.	12c	Lit-	.	.	.
.	.	12d	-tle	.	.	.
.	.	8.e	things	.	.	.
.	.	[16d	I	.	.	.
.	.	12d]	_	.	.	.
.	.	12c	should	A	.	.
.	.	12B	have	.	.	.
=26	=26	=26	=26	=26	=26	=26
1GM	G:maj	8r	.	.	50.559	.
.	.	8B	said	.	.	.
.	.	8G	and	.	.	.
.	.	8Aq	_	.	.	.
.	.	[8B	done,	.	.	.
.	.	4B]	_	.	.	.
.	.	4r	.	.	.	.
=27	=27	=27	=27	=27	=27	=27
2CM	C:maj	4r	.	.	52.497	.
.	.	16r	.	.	.	.
.	.	8.c	I	.	.	.
2GM	G:maj/3	8c	ne-	.	53.467	.
.	.	8B	-ver	.	.	.
.	.	8A	took	.	.	.
.	.	8G	the	.	.	.
=28	=28	=28	=28	=28	=28	=28
2Am	A:min	16B	time	B	54.436	.
.	.	16A	_	.	.	.
.	.	16G	_	.	.	.
.	.	[16A	_	.	.	.
.	.	2A]	_	.	.	.
2GM	G:maj	.	.	.	55.405	.
.	.	4r	.	.	.	.
=29	=29	=29	=29	=29	=29	=29
1DM	D:maj	4r	.	.	56.374	newline
.	.	8A	You	.	.	.
.	.	8A	are	.	.	.
.	.	8B	al-	.	.	.
.	.	8B	-ways	.	.	.
.	.	8c	on	.	.	.
.	.	8c	my	.	.	.
=30	=30	=30	=30	=30	=30	=30
.	.	8cq	_	.	.	.
1GM	G:maj	2.d	mind!	B	58.292	.
.	.	4r	.	.	.	.
=31	=31	=31	=31	=31	=31	=31
2CM	C:maj	4r	.	.	60.209	.
.	.	8A	You	.	.	.
.	.	16A	are	.	.	.
.	.	[16c	al	.	.	.
2DM	D:maj	8c]	_	.	61.168	.
.	.	8c	ways	.	.	.
.	.	8B	on	.	.	.
.	.	[8B	my	.	.	.
=32	=32	=32	=32	=32	=32	=32
2B-M	B-:maj	8B]	_	.	62.126	.
.	.	[8G	mind	B	.	.
.	.	2G]	_	.	.	.
2CM	C:maj	.	.	.	63.085	.
.	.	4r	.	.	.	.
=33	=33	=33	=33	=33	=33	=33
*>Letter>B	*>Letter>B	*>Letter>B	*>Letter>B	*>Letter>B	*>Letter>B	*>Letter>B
*>Label>Verse	*>Label>Verse	*>Label>Verse	*>Label>Verse	*>Label>Verse	*>Label>Verse	*>Label>Verse
1GM	G:maj	4r	.	.	64.044	newline
.	.	16r	.	.	.	.
.	.	8B	May-	.	.	.
.	.	16c	-be	.	.	.
.	.	[4d	I	.	.	.
.	.	8d]	_	.	.	.
.	.	16c	did-	.	.	.
.	.	16B	-n't	.	.	.
=34	=34	=34	=34	=34	=34	=34
1DM	D:maj	4B	hold	C	65.959	.
.	.	2A	you...	.	.	.
.	.	4r	.	.	.	.
=35	=35	=35	=35	=35	=35	=35
2Em	E:min	4r	.	.	67.875	.
.	.	8G	all	.	.	.
.	.	8A	those	.	.	.
2DM	D:maj6	8B	lone-	.	68.833	.
.	.	8A	-ly,	d	.	.
.	.	8.G	lone-	.	.	.
.	.	[16F#	-ly	d	.	.
=36	=36	=36	=36	=36	=36	=36
2.CM	C:maj	8F#]	_	.	69.79	.
.	.	16G	times	B	.	.
.	.	16F#	_	.	.	.
.	.	2E	_	.	.	.
4DM	D:maj	4r	.	.	71.227	.
=37	=37	=37	=37	=37	=37	=37
1GM	G:maj	4r	.	.	71.706	newline
.	.	12r	.	.	.	.
.	.	12B	And	.	.	.
.	.	12c	I	.	.	.
.	.	4d	guess	.	.	.
.	.	12c	I	.	.	.
.	.	12B	ne-	.	.	.
.	.	[12B	-ver	.	.	.
=38	=38	=38	=38	=38	=38	=38
1DM	D:maj	8B]	_	.	73.627	.
.	.	8B	told	C	.	.
.	.	8A	_	.	.	.
.	.	[8A	you	.	.	.
.	.	4A]	.	.	.	.
.	.	4r	.	.	.	.
=39	=39	=39	=39	=39	=39	=39
2Em	E:min	8r	.	.	75.549	.
.	.	[8G	I'm	.	.	.
.	.	8G]	_	.	.	.
.	.	8A	so	.	.	.
2DM	D:maj6	8B	hap-	.	76.509	.
.	.	8A	-py	d	.	.
.	.	8G	that	.	.	.
.	.	8F#	you're	.	.	.
=40	=40	=40	=40	=40	=40	=40
1AM	A:maj	16G	mine	B	77.47	.
.	.	16F#	_	.	.	.
.	.	[8E	_	.	.	.
.	.	2E]	_	.	.	.
.	.	4r	.	.	.	.
=41	=41	=41	=41	=41	=41	=41
*>Letter>C	*>Letter>C	*>Letter>C	*>Letter>C	*>Letter>C	*>Letter>C	*>Letter>C
*>Label>Chorus	*>Label>Chorus	*>Label>Chorus	*>Label>Chorus	*>Label>Chorus	*>Label>Chorus	*>Label>Chorus
1CM	C:maj	4r	.	.	79.392	newline
.	.	12r	.	.	.	.
.	.	12c	If	.	.	.
.	.	12d	I	.	.	.
.	.	6e	made	.	.	.
.	.	6d	you	.	.	.
.	.	8c	feel	D	.	.
.	.	[24B	_	.	.	.
=42	=42	=42	=42	=42	=42	=42
1GM	G:maj	8B]	_	.	81.317	.
.	.	8B	se-	.	.	.
.	.	8G	-cond	.	.	.
.	.	8Aq	_	.	.	.
.	.	[8B	best,	.	.	.
.	.	4.B]	_	.	.	.
.	.	8r	.	.	.	.
=43	=43	=43	=43	=43	=43	=43
2CM	C:maj	8r	.	.	83.242	.
.	.	[8A	I'm	.	.	.
.	.	16A]	_	.	.	.
.	.	8.B	so	.	.	.
2GM	G:maj/3	8c	sor-	.	84.205	.
.	.	8B	-ry	d	.	.
.	.	8A	I	.	.	.
.	.	[8G	was	.	.	.
=44	=44	=44	=44	=44	=44	=44
2Am	A:min	8G]	_	.	85.168	.
.	.	24B	blind	B	.	.
.	.	24A	_	.	.	.
.	.	24G	_	.	.	.
.	.	2A	_	.	.	.
2GM	G:maj	.	.	.	86.13	.
.	.	4r	.	.	.	.
=45	=45	=45	=45	=45	=45	=45
1DM	D:maj	4r	.	.	87.093	newline
.	.	8A	You	.	.	.
.	.	8A	are	.	.	.
.	.	8B	al-	.	.	.
.	.	8B	-ways	.	.	.
.	.	8c	on	.	.	.
.	.	[8c	my	.	.	.
=46	=46	=46	=46	=46	=46	=46
1GM	G:maj	8c]	_	.	89.023	.
.	.	[8d	mind!	B	.	.
.	.	4d]	_	.	.	.
.	.	2r	.	.	.	.
=47	=47	=47	=47	=47	=47	=47
2CM	C:maj	4r	.	.	90.954	.
.	.	8A	You	.	.	.
.	.	16A	are	.	.	.
.	.	[16c	al-	.	.	.
2DM	D:maj	8c]	_	.	91.919	.
.	.	8c	-ways	.	.	.
.	.	8B	on	.	.	.
.	.	[8B	my	.	.	.
=48	=48	=48	=48	=48	=48	=48
2B-M	B-:maj	8B]	_	.	92.884	.
.	.	[8G	mind	B	.	.
.	.	2G]	_	.	.	.
2CM	C:maj	.	.	.	93.849	.
.	.	4r	.	.	.	.
=49	=49	=49	=49	=49	=49	=49
*>Letter>D	*>Letter>D	*>Letter>D	*>Letter>D	*>Letter>D	*>Letter>D	*>Letter>D
*>Label>Bridge	*>Label>Bridge	*>Label>Bridge	*>Label>Bridge	*>Label>Bridge	*>Label>Bridge	*>Label>Bridge
.	.	8cq	_	.	.	.
2GM	G:maj	2.d	Tell	.	94.815	newline
2DM	D:maj/3	.	.	.	95.771	.
.	.	4e	_	.	.	.
=50	=50	=50	=50	=50	=50	=50
2Em	E:min	2G	me...	.	96.727	.
2DM	D:maj	2r	.	.	97.683	.
=51	=51	=51	=51	=51	=51	=51
2CM	C:maj	8c	tell	.	98.639	.
.	.	8B	me	.	.	.
.	.	8A	that	.	.	.
.	.	8G	your	.	.	.
2GM	G:maj/3	6c	sweet	D	99.595	.
.	.	6B	love	.	.	.
.	.	12A	has-	.	.	.
.	.	[12G	-n't	.	.	.
=52	=52	=52	=52	=52	=52	=52
2Am	A:min	8G]	_	.	100.552	.
.	.	[8A	_	.	.	.
.	.	2A]	died.	B	.	.
2DM	D:maj	.	.	.	101.508	.
.	.	4r	.	.	.	.
=53	=53	=53	=53	=53	=53	=53
2GM	G:maj	2.d	Give	.	102.464	newline
2DM	D:maj/3	.	.	.	103.426	.
.	.	4e	_	.	.	.
=54	=54	=54	=54	=54	=54	=54
2Em	E:min	[2G	me	.	104.388	.
2DM	D:maj	8G]	.	.	105.35	.
.	.	8r	.	.	.	.
.	.	4r	.	.	.	.
=55	=55	=55	=55	=55	=55	=55
2CM	C:maj	8c	one	.	106.312	.
.	.	8B	more	.	.	.
.	.	8A	chance	.	.	.
.	.	8G	to	.	.	.
2GM	G:maj/3	8c	keep	D	107.274	.
.	.	[8B	you	.	.	.
.	.	8B]	_	.	.	.
.	.	16A	sa-	.	.	.
.	.	[16G	-tis	.	.	.
=56	=56	=56	=56	=56	=56	=56
2Am	A:min	8G]	_	.	108.235	.
.	.	[8A	fied,	B	.	.
.	.	2A]	_	.	.	.
2DM	D:maj	.	.	.	109.197	.
.	.	8r	.	.	.	.
.	.	[8B	sa	.	.	.
=57	=57	=57	=57	=57	=57	=57
*>Letter>B	*>Letter>B	*>Letter>B	*>Letter>B	*>Letter>B	*>Letter>B	*>Letter>B
*>Label>Solo	*>Label>Solo	*>Label>Solo	*>Label>Solo	*>Label>Solo	*>Label>Solo	*>Label>Solo
1GM	G:maj	8B]	_	.	110.159	newline
.	.	8G	tis-	.	.	.
.	.	[2G	-fied	B	.	.
.	.	8G]	_	.	.	.
.	.	8r	.	.	.	.
=58	=58	=58	=58	=58	=58	=58
1DM	D:maj	1r	.	.	112.071	.
=59	=59	=59	=59	=59	=59	=59
2Em	E:min	1r	.	.	113.984	.
2DM	D:maj6	.	.	.	114.94	.
=60	=60	=60	=60	=60	=60	=60
2.CM	C:maj	1r	.	.	115.896	.
4DM	D:maj	.	.	.	117.33	.
=61	=61	=61	=61	=61	=61	=61
1GM	G:maj	1r	.	.	117.808	newline
=62	=62	=62	=62	=62	=62	=62
1DM	D:maj	1r	.	.	119.737	.
=63	=63	=63	=63	=63	=63	=63
2Em	E:min	1r	.	.	121.666	.
2DM	D:maj6	.	.	.	122.631	.
=64	=64	=64	=64	=64	=64	=64
2.CM	C:maj	1r	.	.	123.596	.
4DM	D:maj	.	.	.	125.042	.
=65	=65	=65	=65	=65	=65	=65
*>Letter>C	*>Letter>C	*>Letter>C	*>Letter>C	*>Letter>C	*>Letter>C	*>Letter>C
*>Label>Chorus	*>Label>Chorus	*>Label>Chorus	*>Label>Chorus	*>Label>Chorus	*>Label>Chorus	*>Label>Chorus
1CM	C:maj	4r	.	.	125.525	newline
.	.	16r	.	.	.	.
.	.	16c	Lit-	.	.	.
.	.	8d	-tle	.	.	.
.	.	6e	things	.	.	.
.	.	6d	I	.	.	.
.	.	12c	should	A	.	.
.	.	[12B	have	.	.	.
=66	=66	=66	=66	=66	=66	=66
1GM	G:maj	8B]	_	.	127.444	.
.	.	8B	said	.	.	.
.	.	8G	and	.	.	.
.	.	[8B	done,	.	.	.
.	.	4B]	_	.	.	.
.	.	4r	.	.	.	.
=67	=67	=67	=67	=67	=67	=67
2CM	C:maj	4r	.	.	129.364	.
.	.	16r	.	.	.	.
.	.	8.c	I	.	.	.
2GM	G:maj/3	8c	ne-	.	130.323	.
.	.	8B	-ver	.	.	.
.	.	8A	took	.	.	.
.	.	8G	the	.	.	.
=68	=68	=68	=68	=68	=68	=68
2Am	A:min	16B	time	B	131.283	.
.	.	16A	_	.	.	.
.	.	16G	_	.	.	.
.	.	[16A	_	.	.	.
.	.	4A_	_	.	.	.
2GM	G:maj	8A]	_	.	132.243	.
.	.	8r	.	.	.	.
.	.	4r	.	.	.	.
=69	=69	=69	=69	=69	=69	=69
1DM	D:maj	4r	.	.	133.202	newline
.	.	8A	You	.	.	.
.	.	8A	are	.	.	.
.	.	8B	al-	.	.	.
.	.	8B	-ways	.	.	.
.	.	8c	on	.	.	.
.	.	8c	my	.	.	.
=70	=70	=70	=70	=70	=70	=70
.	.	8cq	_	.	.	.
1GM	G:maj	2.d	mind!	B	135.131	.
.	.	4r	.	.	.	.
=71	=71	=71	=71	=71	=71	=71
2CM	C:maj	4r	.	.	137.06	.
.	.	8A	You	.	.	.
.	.	16A	are	.	.	.
.	.	[16c	al	.	.	.
2DM	D:maj	6c]	_	.	138.024	.
.	.	6c	ways	.	.	.
.	.	8B	on	.	.	.
.	.	[24B	my	.	.	.
=72	=72	=72	=72	=72	=72	=72
2B-M	B-:maj	8B]	_	.	138.988	.
.	.	[8G	mind	B	.	.
.	.	2G]	_	.	.	.
2CM	C:maj	.	.	.	139.953	.
.	.	4r	.	.	.	.
=73	=73	=73	=73	=73	=73	=73
*>Letter>D	*>Letter>D	*>Letter>D	*>Letter>D	*>Letter>D	*>Letter>D	*>Letter>D
*>Label>Bridge	*>Label>Bridge	*>Label>Bridge	*>Label>Bridge	*>Label>Bridge	*>Label>Bridge	*>Label>Bridge
.	.	8cq	_	.	.	.
2GM	G:maj	2.d	Tell	.	140.917	newline
2DM	D:maj/3	.	.	.	141.871	.
.	.	4e	_	.	.	.
=74	=74	=74	=74	=74	=74	=74
2Em	E:min	2G	me...	D	142.824	.
2DM	D:maj	2r	.	.	143.778	.
=75	=75	=75	=75	=75	=75	=75
2CM	C:maj	8c	tell	.	144.732	.
.	.	8B	me	D	.	.
.	.	8A	that	.	.	.
.	.	8G	your	.	.	.
2GM	G:maj/3	6c	sweet	D	145.686	.
.	.	6B	love	.	.	.
.	.	12A	has-	.	.	.
.	.	[12G	-n't	.	.	.
=76	=76	=76	=76	=76	=76	=76
2Am	A:min	8G]	_	.	146.64	.
.	.	[8A	died	B	.	.
.	.	2A]	_	.	.	.
2DM	D:maj	.	.	.	147.593	.
.	.	4r	.	.	.	.
=77	=77	=77	=77	=77	=77	=77
2GM	G:maj	2.d	Give	.	148.547	newline
2DM	D:maj/3	.	.	.	149.519	.
.	.	4e	_	.	.	.
=78	=78	=78	=78	=78	=78	=78
2Em	E:min	[2G	me	D	150.491	.
2DM	D:maj	8G]	.	.	151.463	.
.	.	8r	.	.	.	.
.	.	4r	.	.	.	.
=79	=79	=79	=79	=79	=79	=79
2CM	C:maj	8c	one	.	152.435	.
.	.	8B	more	.	.	.
.	.	8A	chance	.	.	.
.	.	8G	to	.	.	.
2GM	G:maj/3	8c	keep	D	153.408	.
.	.	[8B	you	.	.	.
.	.	8B]	_	.	.	.
.	.	16A	sa-	.	.	.
.	.	[16G	-tis	.	.	.
=80	=80	=80	=80	=80	=80	=80
2Am	A:min	8G]	_	.	154.38	.
.	.	[8A	fied	B	.	.
.	.	2A]	_	.	.	.
2DM	D:maj	.	.	.	155.352	.
.	.	4r	.	.	.	.
=81	=81	=81	=81	=81	=81	=81
*>Letter>C2	*>Letter>C2	*>Letter>C2	*>Letter>C2	*>Letter>C2	*>Letter>C2	*>Letter>C2
*>Label>Chorus	*>Label>Chorus	*>Label>Chorus	*>Label>Chorus	*>Label>Chorus	*>Label>Chorus	*>Label>Chorus
1DM	D:maj	4r	.	.	156.324	newline
.	.	8A	You	.	.	.
.	.	8A	are	.	.	.
.	.	8B	al-	.	.	.
.	.	8B	-ways	.	.	.
.	.	8c	on	.	.	.
.	.	[8c	my	.	.	.
=82	=82	=82	=82	=82	=82	=82
1GM	G:maj	8c]	_	.	158.228	.
.	.	[8d	mind!	B	.	.
.	.	4d]	_	.	.	.
.	.	2r	.	.	.	.
=83	=83	=83	=83	=83	=83	=83
2CM	C:maj	4r	.	.	160.133	.
.	.	8A	You	.	.	.
.	.	16A	are	.	.	.
.	.	[16c	al-	.	.	.
2DM	D:maj	8c]	_	.	161.085	.
.	.	8c	-ways	.	.	.
.	.	8B	on	.	.	.
.	.	[8B	my	.	.	.
=84	=84	=84	=84	=84	=84	=84
1GM	G:maj	8B]	_	.	162.037	.
.	.	[8G	mind	B	.	.
.	.	2G]	_	.	.	.
.	.	4r	.	.	.	.
=85	=85	=85	=85	=85	=85	=85
1DM	D:maj	4r	.	.	163.941	newline
.	.	8A	You	.	.	.
.	.	8A	are	.	.	.
.	.	8B	al-	.	.	.
.	.	8B	-ways	.	.	.
.	.	8c	on	.	.	.
.	.	[8c	my	.	.	.
=86	=86	=86	=86	=86	=86	=86
1GM	G:maj	8c]	_	.	165.866	.
.	.	[8d	mind!	.	.	.
.	.	2d]	_	.	.	.
.	.	4r	.	.	.	.
=87	=87	=87	=87	=87	=87	=87
2CM	C:maj	4r	.	.	167.79	.
.	.	8A	You	.	.	.
.	.	16A	are	.	.	.
.	.	[16c	al	.	.	.
2DM	D:maj	8c]	_	.	168.752	.
.	.	8c	ways	.	.	.
.	.	8B	on	.	.	.
.	.	[8B	my	.	.	.
=88	=88	=88	=88	=88	=88	=88
1GM	G:maj	8B]	_	.	169.714	.
.	.	[8G	mind.	.	.	.
.	.	2G]	_	.	.	.
.	.	4r	.	.	.	.
=89	=89	=89	=89	=89	=89	=89
1DM	D:maj	4r	.	.	171.638	newline
.	.	8A	You	.	.	.
.	.	8A	are	.	.	.
.	.	8B	al-	.	.	.
.	.	8B	-ways	.	.	.
.	.	8c	on	.	.	.
.	.	[8c	my	.	.	.
=90	=90	=90	=90	=90	=90	=90
1GM	G:maj	8c]	_	.	173.571	.
.	.	[8d	mind!	.	.	.
.	.	2d]	_	.	.	.
.	.	4r	.	.	.	.
=91	=91	=91	=91	=91	=91	=91
2CM	C:maj	4r	.	.	175.504	.
.	.	8A	You	.	.	.
.	.	16A	are	.	.	.
.	.	[16c	al	.	.	.
2DM	D:maj	8c]	_	.	176.471	.
.	.	8c	ways	.	.	.
.	.	8B	on	.	.	.
.	.	[8B	my	.	.	.
=92	=92	=92	=92	=92	=92	=92
2B-M	B-:maj	8B]	_	.	177.437	.
.	.	[8G	mind	.	.	.
.	.	2G]	_	.	.	.
2CM	C:maj	.	.	.	178.404	.
.	.	4r	.	.	.	.
=93	=93	=93	=93	=93	=93	=93
*>Letter>B2	*>Letter>B2	*>Letter>B2	*>Letter>B2	*>Letter>B2	*>Letter>B2	*>Letter>B2
*>Label>Outro	*>Label>Outro	*>Label>Outro	*>Label>Outro	*>Label>Outro	*>Label>Outro	*>Label>Outro
1GM	G:maj	1r	.	.	179.371	newline
=94	=94	=94	=94	=94	=94	=94
1DM	D:maj	1r	.	.	181.288	.
=95	=95	=95	=95	=95	=95	=95
2Em	E:min	1r	.	.	183.205	.
2DM	D:maj6	.	.	.	184.164	.
=96	=96	=96	=96	=96	=96	=96
2.CM	C:maj	1r	.	.	185.122	.
4DM	D:maj	.	.	.	186.56	.
=97	=97	=97	=97	=97	=97	=97
1GM	G:maj	4r	.	.	187.039	newline
.	.	16r	.	.	.	.
.	.	8B	May-	.	.	.
.	.	16c	-be	d	.	.
.	.	[4d	I	.	.	.
.	.	8d]	_	.	.	.
.	.	16c	did-	.	.	.
.	.	16B	-n't	.	.	.
=98	=98	=98	=98	=98	=98	=98
1DM	D:maj	8.B	treat	D	188.96	.
.	.	[16A	you	.	.	.
.	.	4A]	.	.	.	.
.	.	2r	.	.	.	.
=99	=99	=99	=99	=99	=99	=99
2Em	E:min	4r	.	.	190.88	.
.	.	12r	.	.	.	.
.	.	12G	quite	.	.	.
.	.	12A	as	.	.	.
2DM	D:maj6	[4B	good	A	191.841	.
.	.	12B]	_	.	.	.
.	.	12A	as	.	.	.
.	.	[12G	I	.	.	.
=100	=100	=100	=100	=100	=100	=100
2.CM	C:maj	8G]	_	.	192.801	.
.	.	8F#	should	A	.	.
.	.	2E	_	.	.	.
4DM	D:maj	4r	.	.	194.242	.
=101	=101	=101	=101	=101	=101	=101
1GM	G:maj	4r	.	.	194.722	newline
.	.	12r	.	.	.	.
.	.	12B	May-	.	.	.
.	.	12c	-be	d	.	.
.	.	[4d	I	.	.	.
.	.	12d]	_	.	.	.
.	.	12c	didn-	.	.	.
.	.	12B	-n't	.	.	.
=102	=102	=102	=102	=102	=102	=102
1DM	D:maj	8.B	love	.	196.643	.
.	.	[16A	you	.	.	.
.	.	4A_	_	.	.	.
.	.	4A]	.	.	.	.
.	.	4r	.	.	.	.
=103	=103	=103	=103	=103	=103	=103
2Em	E:min	8r	.	.	198.565	.
.	.	8G	quite	.	.	.
.	.	8A	as	.	.	.
.	.	[8B	of	.	.	.
2DM	D:maj6	8B]	_	.	199.525	.
.	.	8A	ten	.	.	.
.	.	8.G	as	.	.	.
.	.	[16F#	I	.	.	.
=104	=104	=104	=104	=104	=104	=104
2.CM	C:maj	8F#]	_	.	200.486	.
.	.	16G	could	A	.	.
.	.	16F#	_	.	.	.
.	.	2E	_	.	.	.
4DM	D:maj	4r	.	.	201.927	.
=105	=105	=105	=105	=105	=105	=105
1GM	G:maj	4r	.	.	202.407	newline
.	.	16r	.	.	.	.
.	.	8B	May-	.	.	.
.	.	16c	-be	d	.	.
.	.	[4d	I	.	.	.
.	.	8d]	_	.	.	.
.	.	16c	did-	.	.	.
.	.	16B	-n't	.	.	.
=106	=106	=106	=106	=106	=106	=106
1DM	D:maj	4B	hold	.	204.327	.
.	.	2A	you...	.	.	.
.	.	4r	.	.	.	.
=107	=107	=107	=107	=107	=107	=107
2Em	E:min	8r	.	.	206.248	.
.	.	8G	all	.	.	.
.	.	8A	those	.	.	.
.	.	[8B	lone	.	.	.
2DM	D:maj6	8B]	_	.	207.208	.
.	.	8A	ly,	d	.	.
.	.	8.G	lone-	.	.	.
.	.	[16F#	-ly	d	.	.
=108	=108	=108	=108	=108	=108	=108
2.CM	C:maj	8F#]	_	.	208.168	.
.	.	16G	times	B	.	.
.	.	16F#	_	.	.	.
.	.	2E	_	.	.	.
4DM	D:maj	4r	.	.	209.608	.
=109	=109	=109	=109	=109	=109	=109
1GM	G:maj	8r	.	.	210.088	newline
.	.	8G	And	.	.	.
.	.	8d	I	.	.	.
.	.	[8d	guess	.	.	.
.	.	8d]	_	.	.	.
.	.	8c	I	.	.	.
.	.	8B	ne-	.	.	.
.	.	8B	-ver	.	.	.
=110	=110	=110	=110	=110	=110	=110
1DM	D:maj	4B	told	.	212.008	.
.	.	2.A	you...	.	.	.
=111	=111	=111	=111	=111	=111	=111
2Em	E:min	6r	.	.	213.928	.
.	.	6G	I'm	.	.	.
.	.	6A	so	.	.	.
2DM	D:maj6	8B	hap-	.	214.888	.
.	.	8A	-py	d	.	.
.	.	8G	that	.	.	.
.	.	8F#	you're	.	.	.
=112	=112	=112	=112	=112	=112	=112
2.CM	C:maj	16G	mine	B	215.848	.
.	.	16F#	_	.	.	.
.	.	[8E	_	.	.	.
.	.	2E]	_	.	.	.
4DM	D:maj	4r	.	.	217.288	.
=113	=113	=113	=113	=113	=113	=113
*>Label>>Fadeout	*>Label>>Fadeout	*>Label>>Fadeout	*>Label>>Fadeout	*>Label>>Fadeout	*>Label>>Fadeout	*>Label>>Fadeout
1GM	G:maj	1r	.	.	217.768	newline
=114	=114	=114	=114	=114	=114	=114
1DM	D:maj	1r	.	.	219.695	.
=115	=115	=115	=115	=115	=115	=115
2Em	E:min	1r	.	.	221.623	.
2DM	D:maj6	.	.	.	222.587	.
=116	=116	=116	=116	=116	=116	=116
2.CM	C:maj	1r	.	.	223.551	.
4DM	D:maj	.	.	.	224.997	.
=117	=117	=117	=117	=117	=117	=117
1GM	G:maj	4r	.	.	225.479	newline
.	.	16r	.	.	.	.
.	.	8B	May-	.	.	.
.	.	16c	-be	.	.	.
.	.	[2d	I	.	.	.
=118	=118	=118	=118	=118	=118	=118
1DM	D:maj	2d_	_	.	226.799	.
.	.	8d]	_	.	.	.
.	.	8e	did-	.	.	.
.	.	4B	-n't	.	.	.
=119	=119	=119	=119	=119	=119	=119
2Em	E:min	8d	love	.	228.119	.
.	.	[8d	you!	.	.	.
.	.	2.d]	_	.	.	.
2DM	D:maj6	.	.	.	228.779	.
=120	=120	=120	=120	=120	=120	=120
2.CM	C:maj	1r	.	.	229.44	.
4DM	D:maj	.	.	.	230.43	.
1r;	1r	r;	.	.	230.76	.
1r;	1r	r;	.	.	235.18	.
*-	*-	*-	*-	*-	*-	*-
!!!BillboardChartDate: 1988/04/30
!!!BillboardPeak: 4
!!!BillboardWeeksOnChart: 14
!!!COC: Pet Shop Boys
!!!ENC: Nathaniel Condit-Schultz
!!!EST: Awating manual error checking and editing.
!!!OTL: Always On My Mind
!!!RDF**chordsym: original McGill chord annotation + (implied pitch class set, with bass pitch in first position)
!!!RDF**harmony: **recip + pitch class of root + harmonic quality
!!!RDF**leadinstrument: original McGill primary instrumentation annotation
!!!RDF**phrase: newline = linebreak in original McGill transcription
!!!RDF**timestamp: McGill audio timestamp in seconds
!!!RDT: 2017/01/12/
!!!SampleActualRank: 11
!!!SampleID#: 0184
!!!SampleTargetRank: 12
!!!MBID: 8419acf4-6000-483a-bf96-50269c571e71